korla/status/symbolic/nvidia-ram-symbolic.svg

<svg xmlns="http://www.w3.org/2000/svg" width="16" height="16" version="1.1">
 <path style="fill:#dfdfdf" d="M 2e-4,13 C 2e-4,13.554 0.4462,14 1.0002,14 H 2.0002 3.0002 4.0002 5.0002 6.0002 V 12 H 4.0002 3.0002 2.0002 2e-4 Z M 2e-4,11 H 1.0002 9.0002 10 14 15 16 V 9 8 A 1,1 0 0 1 15,7 1,1 0 0 1 15.93,6.002 1.5,1.5 0 0 1 16,6 V 5 4.5 4 C 16,3.446 15.554,3 15,3 L 14.5,3 H 14 1.9999 1.4999 0.9999 C 0.4459,3 -1e-4,3.446 -1e-4,4 L -1e-4,4.5 -1e-4,5 -1e-4,6 A 1,1 0 0 1 0.0999,6.006 1,1 0 0 1 1.0002,7 1,1 0 0 1 2e-4,8 L 2e-4,9 2e-4,9.9999 2e-4,11 Z M 3.0002,9 3.0002,5 H 5.0002 L 5.0002,9 Z M 7.0002,9 7.0002,5 H 9.0002 V 9 Z M 8.0002,14 H 9.0002 10 11 12 13 14 15 C 15.554,14 16,13.554 16,13 V 12 H 14 13 12 11 9.0002 8.0002 Z M 11,9 V 5 H 13 V 9 Z"/>
</svg>

<svg style="clip-rule:evenodd;fill-rule:evenodd;stroke-linejoin:round;stroke-miterlimit:2" version="1.1" viewBox="0 0 16 16" xmlns="http://www.w3.org/2000/svg">
 <g transform="translate(1e-4 -1)">
  <path d="m0.695 13c0 0.554 0.446 1 1 1h3.305v-2h-4.305v1z" style="fill:rgb(223,223,223)"/>
 </g>
 <g transform="translate(1e-4 -1)">
  <path d="m6.392 14h7.854c0.554 0 1-0.446 1-1v-1h-8.854v2z" style="fill:rgb(223,223,223)"/>
 </g>
 <g transform="translate(1e-4)">
  <path d="m0 11h16v-3c-0.549 0-1-0.451-1-1 0-0.522 0.409-0.961 0.93-0.998 0.023-1e-3 0.047-2e-3 0.07-2e-3v-2c0-0.554-0.446-1-1-1h-14c-0.554 0-1 0.446-1 1v2c0.033 0 0.067 2e-3 0.1 6e-3 0.508 0.051 0.9 0.483 0.9 0.994 0 0.549-0.451 1-1 1v3zm3-2v-4h2v4h-2zm4 0v-4h2v4h-2zm4 0v-4h2v4h-2z" style="fill-opacity:.5;fill:rgb(223,223,223)"/>
 </g>
</svg>
